X: 28
T:Sligo Maid
M:C
L:1/8
K:G
A2 BA Bdef| gedB AGEF| ~G2 BG dGBG| DEGA BAdB|
A2 BA Bdef| gedB AGEG| ~B3 G (3AAA GE | DEGA BA A2 :|
|: eaag ~a2 ga| bgaf gfed| eggf ~g2 ge| dega bgag|
eaag ~a2 ga| bgaf gfed| eg ~g2 edBc| dBgB BA A2 :|

T:St. Anne's Reel
M:C|
L:1/8
R:reel
Z:Originally French Canadian, now firmly adopted in Ireland.
K:D
de|fedf edcB|A2 FA DAFA|B2GB EBGB|A2 FA DAFA|!
fedf edcB|A2 FA DAFA|BGBd cAce|d2 dc d2:|!
ag|fdfa fdfa|aggf~g3f|edcB Acea|baa^g a3=g|!
fdfa fdfa|aggf~g3f|edcBAcec|dedc d2:||

